build/assets/img/stage-support/image-element-5.svg

<svg width="30" height="63" viewBox="0 0 30 63" fill="none" xmlns="http://www.w3.org/2000/svg">
<g filter="url(#filter0_di)">
<path d="M13.2782 2.31463C14.144 2.02602 14.7933 1.95387 15.0819 2.02602C15.2262 2.02602 15.4427 2.31463 15.587 2.81968C15.8756 3.82979 16.3085 5.85001 16.8135 8.95249C19.3388 22.2282 20.5654 31.2471 20.4932 35.9369L20.4211 37.5242L16.0199 38.8229L13.2782 39.6887C12.3402 39.9773 11.6187 40.0495 11.1858 39.9052C10.7529 39.7609 10.3921 39.4001 10.1035 38.7508C9.8149 38.1014 9.38201 36.8748 8.87696 35.1432L8.15545 32.7622C7.07319 29.0104 5.84662 24.6814 4.54791 19.703C3.2492 14.7246 2.45553 11.6942 2.23908 10.4677C1.95048 9.3854 1.95049 8.59174 2.09479 8.08669C2.52769 7.07658 4.33146 5.85001 7.5061 4.47915C9.74277 3.54119 11.6908 2.81968 13.2782 2.31463ZM14.4325 41.276C16.7414 40.6267 18.6894 40.6988 20.2768 41.4925C21.8641 42.3583 22.9463 43.7292 23.5957 45.8215C24.2451 47.9861 24.0286 50.0784 22.9464 52.0265C21.8641 53.9746 20.2768 55.2733 18.1122 55.8505C17.3186 56.0669 16.5971 56.2112 16.0199 56.1391C14.5047 56.1391 12.9896 55.634 11.4744 54.6961C9.95922 53.686 9.02124 52.6037 8.66049 51.3771C8.22759 49.862 8.29975 48.2025 8.94911 46.543C9.59847 44.8836 10.6807 43.5127 12.1237 42.4304C12.6288 41.9254 13.4224 41.5646 14.4325 41.276Z" fill="url(#paint0_linear)"/>
</g>
<defs>
<filter id="filter0_di" x="0" y="0" width="29.961" height="62.1579" filterUnits="userSpaceOnUse" color-interpolation-filters="sRGB">
<feFlood flood-opacity="0" result="BackgroundImageFix"/>
<feColorMatrix in="SourceAlpha" type="matrix" values="0 0 0 0 0 0 0 0 0 0 0 0 0 0 0 0 0 0 127 0"/>
<feOffset dx="2" dy="2"/>
<feGaussianBlur stdDeviation="2"/>
<feColorMatrix type="matrix" values="0 0 0 0 0 0 0 0 0 0 0 0 0 0 0 0 0 0 0.15 0"/>
<feBlend mode="normal" in2="BackgroundImageFix" result="effect1_dropShadow"/>
<feBlend mode="normal" in="SourceGraphic" in2="effect1_dropShadow" result="shape"/>
<feColorMatrix in="SourceAlpha" type="matrix" values="0 0 0 0 0 0 0 0 0 0 0 0 0 0 0 0 0 0 127 0" result="hardAlpha"/>
<feOffset dx="-2" dy="-2"/>
<feGaussianBlur stdDeviation="2"/>
<feComposite in2="hardAlpha" operator="arithmetic" k2="-1" k3="1"/>
<feColorMatrix type="matrix" values="0 0 0 0 0 0 0 0 0 0 0 0 0 0 0 0 0 0 0.2 0"/>
<feBlend mode="normal" in2="shape" result="effect2_innerShadow"/>
</filter>
<linearGradient id="paint0_linear" x1="23.284" y1="29.0789" x2="2.64187" y2="28.8992" gradientUnits="userSpaceOnUse">
<stop stop-color="#A62E41"/>
<stop offset="1" stop-color="#E13152"/>
</linearGradient>
</defs>
</svg>

<svg width="30" height="63" fill="none" xmlns="http://www.w3.org/2000/svg"><g filter="url(#filter0_di)"><path d="M13.278 2.315c.866-.289 1.515-.361 1.804-.289.144 0 .36.289.505.794.289 1.01.721 3.03 1.227 6.132 2.525 13.276 3.751 22.295 3.68 26.985l-.073 1.587-4.401 1.299-2.742.866c-.938.288-1.66.36-2.092.216-.433-.144-.794-.505-1.082-1.154-.29-.65-.722-1.876-1.227-3.608l-.722-2.38a516.217 516.217 0 01-3.607-13.06c-1.299-4.978-2.092-8.009-2.309-9.235-.289-1.083-.289-1.876-.144-2.381.433-1.01 2.236-2.237 5.411-3.608 2.237-.938 4.185-1.66 5.772-2.164zm1.154 38.961c2.31-.65 4.257-.577 5.845.216 1.587.866 2.67 2.237 3.319 4.33.65 2.164.433 4.256-.65 6.204-1.082 1.949-2.67 3.247-4.834 3.824-.793.217-1.515.361-2.092.29-1.515 0-3.03-.506-4.546-1.444-1.515-1.01-2.453-2.092-2.814-3.319-.432-1.515-.36-3.175.29-4.834.648-1.66 1.73-3.03 3.174-4.113.505-.505 1.298-.865 2.308-1.154z" fill="url(#paint0_linear)"/></g><defs><linearGradient id="paint0_linear" x1="23.284" y1="29.079" x2="2.642" y2="28.899" gradientUnits="userSpaceOnUse"><stop stop-color="#A62E41"/><stop offset="1" stop-color="#E13152"/></linearGradient><filter id="filter0_di" x="0" y="0" width="29.961" height="62.158" filterUnits="userSpaceOnUse" color-interpolation-filters="sRGB"><feFlood flood-opacity="0" result="BackgroundImageFix"/><feColorMatrix in="SourceAlpha" values="0 0 0 0 0 0 0 0 0 0 0 0 0 0 0 0 0 0 127 0"/><feOffset dx="2" dy="2"/><feGaussianBlur stdDeviation="2"/><feColorMatrix values="0 0 0 0 0 0 0 0 0 0 0 0 0 0 0 0 0 0 0.15 0"/><feBlend in2="BackgroundImageFix" result="effect1_dropShadow"/><feBlend in="SourceGraphic" in2="effect1_dropShadow" result="shape"/><feColorMatrix in="SourceAlpha" values="0 0 0 0 0 0 0 0 0 0 0 0 0 0 0 0 0 0 127 0" result="hardAlpha"/><feOffset dx="-2" dy="-2"/><feGaussianBlur stdDeviation="2"/><feComposite in2="hardAlpha" operator="arithmetic" k2="-1" k3="1"/><feColorMatrix values="0 0 0 0 0 0 0 0 0 0 0 0 0 0 0 0 0 0 0.2 0"/><feBlend in2="shape" result="effect2_innerShadow"/></filter></defs></svg>
